!!!OTL: Sheyuan gege xiyangyang
!!!ARE: Asia, China,ÿJiangsu Jiangyin
!! III, 439
!!!SCT: C1789
!!!YEM: Copyright 1995, estate of Helmut Schaffrath.
**kern
*ICvox
*Ivox
*M2/4
*k[]
*C:
{8g
16g
16g
8e
8g
=1
16a
16cc
8g
4a
=2
8a
8dd
16cc
16dd
16cc
16a
=3
2g}
=4
{8a
8dd
16cc
16dd
16cc
16a
=5
8.g
16a
4cc
=6
8e
16a
16cc
16g
16a
16g
16e
=7
2d}
=8
{8.g
16e
8g
8a
=9
8cc
8cc
16a
16cc
16a
16g
=10
8e
8g
4c
=11
2a}
=12
{8a
8dd
16cc
16dd
16cc
16a
=13
8g
8a
8cc
16dd
16cc
=14
8a
16a
16cc
16g
16a
16g
16e
=15
2d}
=16
{8.dd
16dd
8cc
8dd
=17
16a
16cc
16a
16g
4a
=18
8a
8dd
16cc
16dd
16cc
16a
=19
16g
16a
16g
16e
4g}
=20
{8a
8dd
16cc
16dd
16cc
16a
=21
8g
8a
4cc
=22
8a
16a
16cc
16g
16a
16g
16e
=23
4d}
{8g
16g
16e
=24
8.c
16d
8g
16g
16e
=25
2d}
==
!!!AGN: Wuge, Huagu diao
!!!AMT: simple duple
!!!AIN: vox
!!!EED: Helmut Schaffrath
!!!EEV: 1.0
*-
